icons/user-6-line.svg

<svg viewBox="0 0 24 24" fill="currentColor" xmlns="http://www.w3.org/2000/svg"><path d="M11.9999 17C15.6623 17 18.8649 18.5751 20.607 20.9247L18.765 21.796C17.3473 20.1157 14.8473 19 11.9999 19C9.15248 19 6.65252 20.1157 5.23479 21.796L3.39355 20.9238C5.13576 18.5747 8.33796 17 11.9999 17ZM11.9999 2C14.7613 2 16.9999 4.23858 16.9999 7V10C16.9999 12.6888 14.8776 14.8818 12.2168 14.9954L11.9999 15C9.23847 15 6.9999 12.7614 6.9999 10V7C6.9999 4.31125 9.1222 2.11818 11.783 2.00462L11.9999 2ZM11.9999 4C10.4022 4 9.09623 5.24892 9.00499 6.82373L8.9999 7V10C8.9999 11.6569 10.343 13 11.9999 13C13.5976 13 14.9036 11.7511 14.9948 10.1763L14.9999 10V7C14.9999 5.34315 13.6567 4 11.9999 4Z"/></svg>

<svg xmlns="http://www.w3.org/2000/svg" viewBox="0 0 24 24">
    <g>
        <path fill="none" d="M0 0h24v24H0z"/>
        <path fill-rule="nonzero" d="M12 17c3.662 0 6.865 1.575 8.607 3.925l-1.842.871C17.347 20.116 14.847 19 12 19c-2.847 0-5.347 1.116-6.765 2.796l-1.841-.872C5.136 18.574 8.338 17 12 17zm0-15a5 5 0 0 1 5 5v3a5 5 0 0 1-4.783 4.995L12 15a5 5 0 0 1-5-5V7a5 5 0 0 1 4.783-4.995L12 2zm0 2a3 3 0 0 0-2.995 2.824L9 7v3a3 3 0 0 0 5.995.176L15 10V7a3 3 0 0 0-3-3z"/>
    </g>
</svg>
